Papirus-GTK/24x24/apps/kfloppy.svg

<svg height="24" width="24" xmlns="http://www.w3.org/2000/svg"><rect fill="#858a89" height="20" rx="1" transform="matrix(0 -1 -1 0 0 0)" width="20" x="-22" y="-22"/><path d="m8.1367188 2.5c-.0855.1376667-.1367188.2955769-.1367188.4667969v5.5996093c0 .5170667.446.9335938 1 .9335938h10c .554 0 1-.4165272 1-.9335938v-5.5996093c0-.17122-.051219-.3291302-.136719-.4667969zm7.4355472 2h2.855468c.316572 0 .572266.1990902.572266.4453125v3.109375c0 .2462223-.255694.4453125-.572266.4453125h-2.855468c-.316572 0-.572266-.1990902-.572266-.4453125v-3.109375c0-.2462223.255694-.4453125.572266-.4453125z" opacity=".2"/><path d="m8.1367188 2c-.0855.1376667-.1367188.2955769-.1367188.4667969v5.5996093c0 .5170667.446.9335938 1 .9335938h10c .554 0 1-.4165272 1-.9335938v-5.5996093c0-.17122-.051219-.3291302-.136719-.4667969zm7.4355472 2h2.855468c.316572 0 .572266.1990902.572266.4453125v3.109375c0 .2462223-.255694.4453125-.572266.4453125h-2.855468c-.316572 0-.572266-.1990902-.572266-.4453125v-3.109375c0-.2462223.255694-.4453125.572266-.4453125z" fill="#d4d4d4"/><path d="m3 2c-.554 0-1 .446-1 1v .5c0-.554.446-1 1-1h18c .554 0 1 .446 1 1v-.5c0-.554-.446-1-1-1z" fill="#fff" opacity=".2"/><rect fill="#fff" height="9" rx="1" width="16" x="4" y="11"/><path d="m2 20.5v.5c0 .554.446 1 1 1h18c .554 0 1-.446 1-1v-.5c0 .554-.446 1-1 1h-18c-.554 0-1-.446-1-1z" opacity=".3"/><path d="m20 18v1.2c0 .4432-.446.8-1 .8h-14c-.554 0-1-.3568-1-.8v-1.2z" fill="#ffae3f"/></svg>

<?xml version="1.0" encoding="UTF-8" standalone="no"?>
<!-- Created with Inkscape (http://www.inkscape.org/) -->

<svg
   xmlns:dc="http://purl.org/dc/elements/1.1/"
   xmlns:cc="http://creativecommons.org/ns#"
   xmlns:rdf="http://www.w3.org/1999/02/22-rdf-syntax-ns#"
   xmlns:svg="http://www.w3.org/2000/svg"
   xmlns="http://www.w3.org/2000/svg"
   xmlns:sodipodi="http://sodipodi.sourceforge.net/DTD/sodipodi-0.dtd"
   xmlns:inkscape="http://www.inkscape.org/namespaces/inkscape"
   id="svg2817"
   height="24"
   width="24"
   version="1.0"
   inkscape:version="0.91 r13725"
   sodipodi:docname="kfloppy.svg">
  <defs
     id="defs13" />
  <sodipodi:namedview
     pagecolor="#ffffff"
     bordercolor="#666666"
     borderopacity="1"
     objecttolerance="10"
     gridtolerance="10"
     guidetolerance="10"
     inkscape:pageopacity="0"
     inkscape:pageshadow="2"
     inkscape:window-width="1600"
     inkscape:window-height="845"
     id="namedview11"
     showgrid="false"
     inkscape:zoom="1"
     inkscape:cx="-4.5254237"
     inkscape:cy="12.289502"
     inkscape:window-x="0"
     inkscape:window-y="32"
     inkscape:window-maximized="1"
     inkscape:current-layer="svg2817" />
  <metadata
     id="metadata57">
    <rdf:RDF>
      <cc:Work
         rdf:about="">
        <dc:format>image/svg+xml</dc:format>
        <dc:type
           rdf:resource="http://purl.org/dc/dcmitype/StillImage" />
        <dc:title />
      </cc:Work>
    </rdf:RDF>
  </metadata>
  <rect
     style="fill:#858a89"
     id="rect4203"
     ry="1"
     rx="1"
     transform="matrix(0,-1,-1,0,0,0)"
     height="20"
     width="20"
     y="-22"
     x="-22" />
  <path
     id="path4162"
     d="M 8.1367188,2.5 C 8.0512188,2.6376667 8,2.7955769 8,2.9667969 L 8,8.5664062 C 8,9.0834729 8.446,9.5 9,9.5 l 10,0 c 0.554,0 1,-0.4165272 1,-0.9335938 L 20,2.9667969 C 20,2.7955769 19.948781,2.6376667 19.863281,2.5 l -11.7265622,0 z m 7.4355472,2 2.855468,0 C 18.744306,4.5 19,4.6990902 19,4.9453125 l 0,3.109375 C 19,8.3009098 18.744306,8.5 18.427734,8.5 l -2.855468,0 C 15.255694,8.5 15,8.3009098 15,8.0546875 l 0,-3.109375 C 15,4.6990902 15.255694,4.5 15.572266,4.5 Z"
     style="opacity:0.2;fill:#000000;fill-opacity:1"
     inkscape:connector-curvature="0" />
  <path
     style="fill:#d4d4d4"
     d="M 8.1367188 2 C 8.0512188 2.1376667 8 2.2955769 8 2.4667969 L 8 8.0664062 C 8 8.5834729 8.446 9 9 9 L 19 9 C 19.554 9 20 8.5834728 20 8.0664062 L 20 2.4667969 C 20 2.2955769 19.948781 2.1376667 19.863281 2 L 8.1367188 2 z M 15.572266 4 L 18.427734 4 C 18.744306 4 19 4.1990902 19 4.4453125 L 19 7.5546875 C 19 7.8009098 18.744306 8 18.427734 8 L 15.572266 8 C 15.255694 8 15 7.8009098 15 7.5546875 L 15 4.4453125 C 15 4.1990902 15.255694 4 15.572266 4 z "
     id="path4159" />
  <path
     style="opacity:0.2;fill:#ffffff"
     inkscape:connector-curvature="0"
     id="rect4592"
     d="M 3,2 C 2.446,2 2,2.446 2,3 l 0,0.5 c 0,-0.554 0.446,-1 1,-1 l 18,0 c 0.554,0 1,0.446 1,1 L 22,3 C 22,2.446 21.554,2 21,2 L 3,2 Z" />
  <rect
     style="fill:#ffffff"
     id="rect4186"
     rx="1"
     ry="1"
     height="9"
     width="16"
     y="11"
     x="4" />
  <path
     style="opacity:0.3"
     inkscape:connector-curvature="0"
     id="rect4182"
     d="M 2,20.5 2,21 c 0,0.554 0.446,1 1,1 l 18,0 c 0.554,0 1,-0.446 1,-1 l 0,-0.5 c 0,0.554 -0.446,1 -1,1 l -18,0 c -0.554,0 -1,-0.446 -1,-1 z" />
  <path
     style="fill:#ffae3f"
     inkscape:connector-curvature="0"
     id="rect4155"
     d="m 20,18 0,1.2 C 20,19.6432 19.554,20 19,20 L 5,20 C 4.446,20 4,19.6432 4,19.2 L 4,18 Z" />
</svg>
